;FLAVOR:Marlin
;TIME:1689
;Filament used: 1.37611m
;Layer height: 0.3
;MINX:70.52
;MINY:86.072
;MINZ:0.28
;MAXX:150.878
;MAXY:130.722
;MAXZ:6.88
;Generated with Cura_SteamEngine 4.9.1
M140 S110
M105
M190 S110
M104 S255
M105
M109 S255
M82 ;absolute extrusion mode
M201 X500.00 Y500.00 Z100.00 E5000.00 ;Setup machine max acceleration
M203 X500.00 Y500.00 Z10.00 E50.00 ;Setup machine max feedrate
M204 P500.00 R1000.00 T500.00 ;Setup Print/Retract/Travel acceleration
M205 X8.00 Y8.00 Z0.40 E5.00 ;Setup Jerk
M220 S100 ;Reset Feedrate
M221 S100 ;Reset Flowrate

G28 ;Home
G29

G92 E0 ;Reset Extruder
G1 Z2.0 F3000 ;Move Z Axis up
G1 X10.1 Y20 Z0.28 F5000.0 ;Move to start position
G1 X10.1 Y200.0 Z0.28 F1500.0 E15 ;Draw the first line
G1 X10.4 Y200.0 Z0.28 F5000.0 ;Move to side a little
G1 X10.4 Y20 Z0.28 F1500.0 E30 ;Draw the second line
G92 E0 ;Reset Extruder
M413 S1; Enable power-loss recovery
G1 Z2.0 F3000 ;Move Z Axis up
G92 E0
G92 E0
G1 F2700 E-5
;LAYER_COUNT:23
;LAYER:0
M107
G0 F6000 X79.729 Y92.422 Z0.28
;TYPE:SKIRT
G1 F2700 E0
G1 F1200 X80.886 Y91.53 E0.06803
G1 X81.895 Y90.828 E0.12526
G1 X82.76 Y90.27 E0.17319
G1 X83.719 Y89.741 E0.22419
G1 X84.223 Y89.498 E0.25025
G1 X85.35 Y88.981 E0.30798
G1 X86.361 Y88.561 E0.35896
G1 X87.741 Y88.121 E0.42641
G1 X88.904 Y87.811 E0.48245
G1 X89.972 Y87.568 E0.53345
G1 X91.463 Y87.362 E0.60354
G1 X92.701 Y87.254 E0.6614
G1 X94.106 Y87.197 E0.72688
G1 X95.89 Y87.209 E0.80995
G1 X96.984 Y87.257 E0.86094
G1 X98.277 Y87.417 E0.92161
G1 X98.711 Y87.49 E0.9421
G1 X99.784 Y87.711 E0.99311
G1 X100.993 Y88.061 E1.05172
G1 X102.019 Y88.445 E1.10273
G1 X103.136 Y88.965 E1.16011
G1 X103.525 Y89.166 E1.18049
G1 X104.479 Y89.704 E1.23149
G1 X105.429 Y90.337 E1.28465
G1 X106.293 Y91.009 E1.33562
G1 X107.355 Y91.989 E1.40291
G1 X107.665 Y92.304 E1.42349
G1 X108.404 Y93.112 E1.47447
G1 X108.872 Y93.705 E1.50965
G1 X109.318 Y93.896 E1.53224
G1 X110.265 Y94.158 E1.57799
G1 X111.237 Y94.291 E1.62368
G1 X112.215 Y94.291 E1.66922
G1 X113.188 Y94.158 E1.71494
G1 X114.133 Y93.897 E1.76059
G1 X115.943 Y93.119 E1.85233
G1 X116.965 Y92.723 E1.90337
G1 X117.816 Y92.464 E1.94479
G1 X118.002 Y92.277 E1.95707
G1 X118.289 Y92.011 E1.97529
G1 X119.118 Y91.296 E2.02627
G1 X120.009 Y90.636 E2.0779
G1 X120.32 Y90.423 E2.09545
G1 X121.342 Y89.782 E2.15162
G1 X123.794 Y88.378 E2.28319
G1 X124.828 Y87.838 E2.33751
G1 X125.187 Y87.668 E2.35601
G1 X126.194 Y87.236 E2.40703
G1 X127.435 Y86.817 E2.46802
G1 X127.808 Y86.709 E2.4861
G1 X128.871 Y86.443 E2.53713
G1 X130.062 Y86.24 E2.59338
G1 X130.442 Y86.191 E2.61122
G1 X131.532 Y86.091 E2.66219
G1 X132.723 Y86.072 E2.71766
G1 X133.095 Y86.081 E2.73498
G1 X134.188 Y86.148 E2.78597
G1 X135.383 Y86.313 E2.84215
G1 X135.784 Y86.385 E2.86112
G1 X136.919 Y86.635 E2.91523
G1 X137.402 Y86.761 E2.93848
G1 X138.596 Y87.126 E2.99662
G1 X139.062 Y87.29 E3.01962
G1 X140.081 Y87.691 E3.07061
G1 X141.296 Y88.288 E3.13365
G1 X141.739 Y88.531 E3.15717
G1 X142.679 Y89.092 E3.20815
G1 X143.829 Y89.916 E3.27402
G1 X144.216 Y90.222 E3.29699
G1 X145.049 Y90.932 E3.34796
G1 X145.981 Y91.865 E3.40937
G1 X146.313 Y92.228 E3.43227
G1 X147.022 Y93.062 E3.48324
G1 X147.789 Y94.128 E3.5444
G1 X148.061 Y94.543 E3.5675
G1 X148.628 Y95.481 E3.61854
G1 X149.251 Y96.736 E3.68378
G1 X149.449 Y97.187 E3.70671
G1 X149.852 Y98.205 E3.7577
G1 X150.247 Y99.501 E3.82078
G1 X150.371 Y99.986 E3.84409
G1 X150.603 Y101.057 E3.89512
G1 X150.781 Y102.398 E3.95811
G1 X150.822 Y102.868 E3.98008
G1 X150.878 Y103.962 E4.03109
G1 X150.842 Y105.228 E4.09006
G1 X150.807 Y105.724 E4.11321
G1 X150.69 Y106.813 E4.16421
G1 X150.42 Y108.209 E4.23042
G1 X150.3 Y108.703 E4.25409
G1 X150.003 Y109.757 E4.30508
G1 X149.54 Y111.003 E4.36698
G1 X149.354 Y111.443 E4.38922
G1 X149.141 Y111.899 E4.41266
G1 X149.266 Y112.644 E4.44783
G1 X149.362 Y113.768 E4.50036
G1 X149.356 Y115.307 E4.57203
G1 X149.342 Y115.558 E4.58373
G1 X149.347 Y115.797 E4.59486
G1 X149.289 Y116.891 E4.64588
G1 X149.151 Y117.977 E4.69685
G1 X148.935 Y119.051 E4.74786
G1 X148.641 Y120.106 E4.79886
G1 X148.27 Y121.137 E4.84988
G1 X147.826 Y122.138 E4.90087
G1 X147.309 Y123.103 E4.95185
G1 X146.627 Y124.167 E5.0107
G1 X146.507 Y124.338 E5.02042
G1 X145.846 Y125.211 E5.07141
G1 X145.122 Y126.034 E5.12245
G1 X144.341 Y126.801 E5.17342
G1 X143.506 Y127.509 E5.2244
G1 X142.621 Y128.155 E5.27542
G1 X141.691 Y128.734 E5.32643
G1 X140.722 Y129.244 E5.37742
G1 X139.718 Y129.682 E5.42843
G1 X138.685 Y130.045 E5.47941
G1 X137.628 Y130.332 E5.53041
G1 X136.552 Y130.541 E5.58145
G1 X135.465 Y130.671 E5.63243
G1 X134.134 Y130.722 E5.69445
G1 X85.511 Y130.414 E7.95858
G1 X84.417 Y130.367 E8.00957
G1 X83.329 Y130.24 E8.06058
G1 X82.253 Y130.034 E8.11159
G1 X81.195 Y129.751 E8.16259
G1 X80.161 Y129.391 E8.21357
G1 X79.155 Y128.956 E8.26461
G1 X78.184 Y128.449 E8.31561
G1 X77.253 Y127.873 E8.36659
G1 X76.366 Y127.23 E8.4176
G1 X75.529 Y126.525 E8.46856
G1 X74.745 Y125.76 E8.51957
G1 X74.019 Y124.94 E8.57056
G1 X73.355 Y124.069 E8.62156
G1 X72.756 Y123.152 E8.67256
G1 X72.225 Y122.193 E8.72361
G1 X71.766 Y121.199 E8.77459
G1 X71.263 Y119.804 E8.84364
G1 X71.177 Y119.523 E8.85732
G1 X70.895 Y118.464 E8.90835
G1 X70.691 Y117.388 E8.95935
G1 X70.565 Y116.3 E9.01035
G1 X70.52 Y115.206 E9.06133
G1 X70.555 Y114.111 E9.11235
G1 X70.669 Y113.022 E9.16333
G1 X70.863 Y111.944 E9.21433
G1 X71.135 Y110.883 E9.26534
G1 X71.483 Y109.845 E9.31631
G1 X71.907 Y108.831 E9.36749
G1 X71.968 Y107.716 E9.41949
G1 X72.091 Y106.489 E9.47691
G1 X72.24 Y105.404 E9.52791
G1 X72.575 Y103.928 E9.59838
G1 X72.904 Y102.757 E9.65502
G1 X73.306 Y101.531 E9.7151
G1 X73.816 Y100.332 E9.77577
G1 X74.342 Y99.231 E9.83259
G1 X74.85 Y98.26 E9.88361
G1 X75.66 Y96.994 E9.9536
G1 X76.378 Y95.986 E10.01123
G1 X77.045 Y95.118 E10.0622
G1 X78.063 Y94.008 E10.13233
G1 X78.921 Y93.162 E10.18844
G1 X79.729 Y92.422 E10.23945
G0 F6000 X79.999 Y92.717
G1 F1200 X81.115 Y91.858 E10.30503
G1 X82.124 Y91.156 E10.36227
G1 X82.965 Y90.613 E10.40888
G1 X84.389 Y89.862 E10.48384
G1 X85.516 Y89.345 E10.54158
G1 X86.515 Y88.931 E10.59193
G1 X87.844 Y88.508 E10.65688
G1 X89.007 Y88.198 E10.71292
G1 X90.06 Y87.958 E10.76321
G1 X91.498 Y87.76 E10.8308
G1 X92.736 Y87.652 E10.88867
G1 X94.103 Y87.597 E10.95237
G1 X95.887 Y87.609 E11.03545
G1 X96.967 Y87.657 E11.08578
G1 X98.211 Y87.811 E11.14415
G1 X98.645 Y87.884 E11.16465
G1 X99.703 Y88.103 E11.21495
G1 X100.867 Y88.44 E11.27138
G1 X101.879 Y88.82 E11.32172
G1 X102.952 Y89.32 E11.37684
G1 X103.341 Y89.521 E11.39723
G1 X104.282 Y90.052 E11.44754
G1 X105.195 Y90.662 E11.49867
G1 X106.048 Y91.325 E11.54897
G1 X107.07 Y92.269 E11.61376
G1 X107.38 Y92.584 E11.63434
G1 X108.109 Y93.382 E11.68467
G1 X108.62 Y94.031 E11.72313
G1 X109.185 Y94.274 E11.75177
G1 X110.185 Y94.551 E11.80009
G1 X111.212 Y94.691 E11.84835
G1 X112.24 Y94.691 E11.89622
G1 X113.268 Y94.551 E11.94453
G1 X114.265 Y94.275 E11.9927
G1 X116.101 Y93.486 E12.08575
G1 X117.109 Y93.097 E12.13606
G1 X118.026 Y92.819 E12.18068
G1 X118.273 Y92.57 E12.19701
G1 X118.56 Y92.304 E12.21523
G1 X119.38 Y91.599 E12.26558
G1 X120.235 Y90.966 E12.31512
G1 X120.546 Y90.753 E12.33267
G1 X121.541 Y90.129 E12.38736
G1 X123.993 Y88.725 E12.51893
G1 X125 Y88.2 E12.57181
G1 X125.359 Y88.03 E12.59031
G1 X126.352 Y87.604 E12.64062
G1 X127.546 Y87.201 E12.6993
G1 X127.919 Y87.093 E12.71738
G1 X128.968 Y86.831 E12.76773
G1 X130.113 Y86.637 E12.8218
G1 X130.493 Y86.588 E12.83964
G1 X131.569 Y86.489 E12.88996
G1 X132.713 Y86.472 E12.94323
G1 X133.085 Y86.481 E12.96056
G1 X134.164 Y86.547 E13.0109
G1 X135.312 Y86.707 E13.06487
G1 X135.713 Y86.779 E13.08384
G1 X136.818 Y87.022 E13.13652
G1 X137.301 Y87.148 E13.15977
G1 X138.463 Y87.503 E13.21634
G1 X138.929 Y87.667 E13.23935
G1 X139.934 Y88.063 E13.28964
G1 X141.104 Y88.638 E13.35035
G1 X141.547 Y88.881 E13.37388
G1 X142.474 Y89.436 E13.42419
G1 X143.58 Y90.23 E13.48758
G1 X143.967 Y90.536 E13.51056
G1 X144.79 Y91.237 E13.5609
G1 X145.686 Y92.135 E13.61996
G1 X146.018 Y92.498 E13.64287
G1 X146.717 Y93.321 E13.69315
G1 X147.455 Y94.348 E13.75204
G1 X147.727 Y94.763 E13.77514
G1 X148.285 Y95.688 E13.82544
G1 X148.884 Y96.897 E13.88827
G1 X149.082 Y97.348 E13.91121
G1 X149.48 Y98.353 E13.96154
G1 X149.859 Y99.601 E14.02227
G1 X149.983 Y100.086 E14.04558
G1 X150.212 Y101.142 E14.0959
G1 X150.383 Y102.433 E14.15654
G1 X150.424 Y102.903 E14.1785
G1 X150.478 Y103.982 E14.22881
G1 X150.443 Y105.2 E14.28555
G1 X150.408 Y105.696 E14.3087
G1 X150.292 Y106.77 E14.359
G1 X150.031 Y108.114 E14.42275
G1 X149.911 Y108.608 E14.44643
G1 X149.618 Y109.648 E14.49674
G1 X149.172 Y110.847 E14.55631
G1 X148.986 Y111.287 E14.57855
G1 X148.727 Y111.841 E14.60703
G1 X148.869 Y112.692 E14.6472
G1 X148.963 Y113.802 E14.69907
G1 X148.957 Y115.285 E14.76813
G1 X148.941 Y115.569 E14.78137
G1 X148.946 Y115.863 E14.79506
G1 X148.883 Y116.942 E14.84539
G1 X148.74 Y118.013 E14.8957
G1 X148.518 Y119.07 E14.946
G1 X148.219 Y120.109 E14.99634
G1 X147.844 Y121.122 E15.04664
G1 X147.395 Y122.105 E15.09696
G1 X146.875 Y123.052 E15.14727
G1 X146.3 Y123.938 E15.19645
G1 X146.18 Y124.109 E15.20618
G1 X145.527 Y124.97 E15.25649
G1 X144.812 Y125.78 E15.3068
G1 X144.039 Y126.535 E15.35712
G1 X143.213 Y127.231 E15.40741
G1 X142.337 Y127.864 E15.45774
G1 X141.417 Y128.43 E15.50804
G1 X140.457 Y128.927 E15.55837
G1 X139.463 Y129.351 E15.60869
G1 X138.441 Y129.701 E15.65899
G1 X137.395 Y129.974 E15.70933
G1 X136.333 Y130.17 E15.75962
G1 X135.258 Y130.286 E15.80997
G1 X134.137 Y130.322 E15.86219
G1 X85.514 Y130.014 E18.12633
G1 X84.434 Y129.967 E18.17666
G1 X83.361 Y129.84 E18.22698
G1 X82.3 Y129.635 E18.27729
G1 X81.257 Y129.351 E18.32763
G1 X80.238 Y128.992 E18.37794
G1 X79.249 Y128.557 E18.42825
G1 X78.294 Y128.051 E18.47857
G1 X77.38 Y127.476 E18.52885
G1 X76.51 Y126.834 E18.5792
G1 X75.69 Y126.13 E18.62952
G1 X74.925 Y125.368 E18.6798
G1 X74.218 Y124.55 E18.73015
G1 X73.573 Y123.683 E18.78046
G1 X72.995 Y122.771 E18.83074
G1 X72.485 Y121.818 E18.88107
G1 X72.048 Y120.83 E18.93138
G1 X71.645 Y119.687 E18.98781
G1 X71.559 Y119.406 E19.00149
G1 X71.281 Y118.361 E19.05185
G1 X71.082 Y117.3 E19.10211
G1 X70.961 Y116.226 E19.15244
G1 X70.92 Y115.146 E19.20276
G1 X70.959 Y114.066 E19.25309
G1 X71.078 Y112.992 E19.3034
G1 X71.276 Y111.93 E19.3537
G1 X71.552 Y110.885 E19.40403
G1 X71.904 Y109.864 E19.45432
G1 X72.302 Y108.939 E19.50121
G1 X72.366 Y107.756 E19.55638
G1 X72.489 Y106.529 E19.6138
G1 X72.636 Y105.458 E19.66414
G1 X72.96 Y104.036 E19.73205
G1 X73.289 Y102.865 E19.78868
G1 X73.681 Y101.672 E19.84716
G1 X74.177 Y100.504 E19.90625
G1 X74.703 Y99.403 E19.96306
G1 X75.205 Y98.446 E20.01338
G1 X75.985 Y97.227 E20.08077
G1 X76.703 Y96.219 E20.1384
G1 X77.362 Y95.362 E20.18874
G1 X78.344 Y94.293 E20.25633
G1 X79.202 Y93.447 E20.31244
G1 X79.999 Y92.717 E20.36276
G0 F6000 X80.269 Y93.012
G1 F1200 X81.343 Y92.187 E20.42582
G1 X82.352 Y91.485 E20.48306
G1 X83.171 Y90.956 E20.52846
G1 X84.556 Y90.225 E20.60138
G1 X85.683 Y89.708 E20.65912
G1 X86.668 Y89.301 E20.70874
G1 X87.947 Y88.894 E20.77124
G1 X89.11 Y88.584 E20.82729
G1 X90.149 Y88.348 E20.8769
G1 X91.533 Y88.159 E20.94194
G1 X92.771 Y88.051 E20.99981
G1 X94.101 Y87.997 E21.06179
G1 X95.885 Y88.009 E21.14486
G1 X96.949 Y88.056 E21.19445
G1 X98.144 Y88.206 E21.25054
G1 X98.578 Y88.279 E21.27103
G1 X99.622 Y88.495 E21.32067
G1 X100.74 Y88.82 E21.37488
G1 X101.738 Y89.194 E21.42451
G1 X102.769 Y89.676 E21.47751
G1 X103.158 Y89.877 E21.4979
G1 X104.085 Y90.401 E21.54748
G1 X104.961 Y90.986 E21.59653
G1 X105.802 Y91.641 E21.64617
G1 X106.785 Y92.55 E21.70851
G1 X107.095 Y92.865 E21.72909
G1 X107.813 Y93.652 E21.77869
G1 X108.368 Y94.359 E21.82055
G1 X109.051 Y94.653 E21.85517
G1 X110.1 Y94.943 E21.90585
G1 X111.187 Y95.091 E21.95693
G1 X112.264 Y95.091 E22.00708
G1 X113.355 Y94.942 E22.05835
G1 X114.398 Y94.654 E22.10874
G1 X116.259 Y93.854 E22.20306
G1 X117.253 Y93.47 E22.25268
G1 X118.237 Y93.173 E22.30054
G1 X118.545 Y92.863 E22.32089
G1 X118.832 Y92.597 E22.33911
G1 X119.641 Y91.903 E22.38874
G1 X120.461 Y91.296 E22.43625
G1 X120.772 Y91.083 E22.4538
G1 X121.74 Y90.476 E22.507
G1 X124.192 Y89.072 E22.63857
G1 X125.171 Y88.561 E22.68999
G1 X125.53 Y88.391 E22.70849
G1 X126.509 Y87.972 E22.75808
G1 X127.658 Y87.585 E22.81453
G1 X128.031 Y87.477 E22.83261
G1 X129.065 Y87.219 E22.88224
G1 X130.164 Y87.034 E22.93413
G1 X130.544 Y86.985 E22.95197
G1 X131.605 Y86.888 E23.00158
G1 X132.703 Y86.872 E23.05271
G1 X133.075 Y86.881 E23.07004
G1 X134.139 Y86.947 E23.11968
G1 X135.241 Y87.101 E23.17149
G1 X135.642 Y87.173 E23.19046
G1 X136.717 Y87.409 E23.24171
G1 X137.2 Y87.535 E23.26496
G1 X138.33 Y87.88 E23.31997
G1 X138.796 Y88.044 E23.34297
G1 X139.787 Y88.436 E23.3926
G1 X140.911 Y88.989 E23.45093
G1 X141.354 Y89.232 E23.47446
G1 X142.269 Y89.779 E23.5241
G1 X143.332 Y90.543 E23.58505
G1 X143.719 Y90.849 E23.60802
G1 X144.53 Y91.541 E23.65767
G1 X145.39 Y92.404 E23.7144
G1 X145.722 Y92.767 E23.7373
G1 X146.412 Y93.58 E23.78696
G1 X147.12 Y94.567 E23.84352
G1 X147.392 Y94.982 E23.86662
G1 X147.943 Y95.895 E23.91628
G1 X148.518 Y97.058 E23.97669
G1 X148.716 Y97.509 E23.99962
G1 X149.108 Y98.5 E24.04925
G1 X149.471 Y99.7 E24.10763
G1 X149.595 Y100.185 E24.13094
G1 X149.821 Y101.226 E24.18054
G1 X149.984 Y102.468 E24.23887
G1 X150.025 Y102.938 E24.26084
G1 X150.078 Y104.002 E24.31044
G1 X150.044 Y105.172 E24.36494
G1 X150.009 Y105.668 E24.3881
G1 X149.894 Y106.727 E24.4377
G1 X149.643 Y108.02 E24.49903
G1 X149.523 Y108.514 E24.5227
G1 X149.232 Y109.539 E24.57232
G1 X148.803 Y110.691 E24.62956
G1 X148.617 Y111.131 E24.6518
G1 X148.313 Y111.782 E24.68526
G1 X148.476 Y112.773 E24.73202
G1 X148.564 Y113.835 E24.78164
G1 X148.558 Y115.263 E24.84814
G1 X148.54 Y115.587 E24.86325
G1 X148.544 Y115.928 E24.87913
G1 X148.476 Y116.991 E24.92872
G1 X148.328 Y118.047 E24.97838
G1 X148.101 Y119.088 E25.02799
G1 X147.797 Y120.109 E25.07759
G1 X147.418 Y121.105 E25.12722
G1 X146.964 Y122.069 E25.17683
G1 X146.44 Y122.997 E25.22646
G1 X145.973 Y123.708 E25.26607
G1 X145.853 Y123.879 E25.27579
G1 X145.208 Y124.728 E25.32544
G1 X144.502 Y125.526 E25.37506
G1 X143.738 Y126.268 E25.42465
G1 X142.92 Y126.952 E25.4743
G1 X142.053 Y127.572 E25.52393
G1 X141.143 Y128.125 E25.57351
G1 X140.193 Y128.609 E25.62316
G1 X139.21 Y129.02 E25.67277
G1 X138.199 Y129.356 E25.72238
G1 X137.165 Y129.615 E25.77202
G1 X136.115 Y129.796 E25.82163
G1 X135.054 Y129.898 E25.87126
G1 X134.139 Y129.922 E25.91388
G1 X85.516 Y129.614 E28.17802
G1 X84.451 Y129.567 E28.22766
G1 X83.393 Y129.441 E28.27727
G1 X82.348 Y129.235 E28.32687
G1 X81.32 Y128.952 E28.37652
G1 X80.317 Y128.592 E28.42614
G1 X79.344 Y128.159 E28.47573
G1 X78.406 Y127.653 E28.52535
G1 X77.508 Y127.079 E28.57498
G1 X76.656 Y126.439 E28.6246
G1 X75.855 Y125.736 E28.67423
G1 X75.108 Y124.976 E28.72385
G1 X74.42 Y124.162 E28.77347
G1 X73.796 Y123.298 E28.8231
G1 X73.238 Y122.39 E28.87273
G1 X72.75 Y121.443 E28.92233
G1 X72.334 Y120.462 E28.97195
G1 X72.028 Y119.57 E29.01586
G1 X71.942 Y119.289 E29.02955
G1 X71.668 Y118.259 E29.07918
G1 X71.473 Y117.211 E29.12881
G1 X71.357 Y116.152 E29.17842
G1 X71.32 Y115.087 E29.22804
G1 X71.364 Y114.022 E29.27767
G1 X71.487 Y112.964 E29.32727
G1 X71.689 Y111.917 E29.37692
G1 X71.969 Y110.889 E29.42653
G1 X72.325 Y109.885 E29.47614
G1 X72.696 Y109.046 E29.51885
G1 X72.764 Y107.796 E29.57714
G1 X72.887 Y106.569 E29.63456
G1 X73.033 Y105.513 E29.6842
G1 X73.345 Y104.144 E29.74958
G1 X73.674 Y102.973 E29.80622
G1 X74.055 Y101.812 E29.86312
G1 X74.538 Y100.677 E29.92056
G1 X75.064 Y99.576 E29.97737
G1 X75.559 Y98.632 E30.02701
G1 X76.311 Y97.459 E30.09189
G1 X77.029 Y96.451 E30.14951
G1 X77.68 Y95.606 E30.19918
G1 X78.625 Y94.578 E30.2642
G1 X79.483 Y93.732 E30.32031
G1 X80.269 Y93.012 E30.36994
G0 F6000 X80.539 Y93.308
G1 F1200 X81.572 Y92.515 E30.43058
G1 X82.581 Y91.813 E30.48782
G1 X83.377 Y91.299 E30.53194
G1 X84.723 Y90.589 E30.6028
G1 X85.85 Y90.072 E30.66054
G1 X86.821 Y89.67 E30.70947
G1 X88.05 Y89.281 E30.7695
G1 X89.213 Y88.971 E30.82554
G1 X90.237 Y88.739 E30.87443
G1 X91.568 Y88.557 E30.93699
G1 X92.806 Y88.449 E30.99485
G1 X94.098 Y88.397 E31.05506
